X: 2183
T: Aunt May's Canadian
R: jig
M: 6/8
K: Dmajor
|:A|f2 f f>ga|d2 d dcB|ABA A>GF|E3- E2 A|
e2 e e>fg|e2 d c2 B|1 A2 A A>BA|F3- F2:|2 ABA ABc|d3- d2||
|:B|AFA faf|e2 d c2 B|AF/G/A BcB|A2 G G3|
GEG ege|d2 c c2 B|1 A>BA A^G=G|F3- F2:|2 ABA AA/B/c|d3- d2||

